web/packages/design/src/ResourceIcon/assets/github-dark.svg

<svg width="72" height="71" viewBox="0 0 72 71" fill="none" xmlns="http://www.w3.org/2000/svg">
<g clip-path="url(#clip0_7805_38670)">
<path d="M36 0C55.89 0 72 16.11 72 36C71.9981 43.5429 69.6308 50.8953 65.2313 57.0223C60.8318 63.1493 54.6217 67.7424 47.475 70.155C45.675 70.515 45 69.39 45 68.445C45 67.23 45.045 63.36 45.045 58.545C45.045 55.17 43.92 53.01 42.615 51.885C50.625 50.985 59.04 47.925 59.04 34.11C59.04 30.15 57.645 26.955 55.35 24.435C55.71 23.535 56.97 19.845 54.99 14.895C54.99 14.895 51.975 13.905 45.09 18.585C42.21 17.775 39.15 17.37 36.09 17.37C33.03 17.37 29.97 17.775 27.09 18.585C20.205 13.95 17.19 14.895 17.19 14.895C15.21 19.845 16.47 23.535 16.83 24.435C14.535 26.955 13.14 30.195 13.14 34.11C13.14 47.88 21.51 50.985 29.52 51.885C28.485 52.785 27.54 54.36 27.225 56.7C25.155 57.645 19.98 59.175 16.74 53.73C16.065 52.65 14.04 49.995 11.205 50.04C8.19001 50.085 9.99001 51.75 11.25 52.425C12.78 53.28 14.535 56.475 14.94 57.51C15.66 59.535 18 63.405 27.045 61.74C27.045 64.755 27.09 67.59 27.09 68.445C27.09 69.39 26.415 70.47 24.615 70.155C17.4449 67.7684 11.2083 63.1846 6.79001 57.0539C2.37171 50.9232 -0.00396216 43.5569 4.96041e-06 36C4.96041e-06 16.11 16.11 0 36 0Z" fill="white"/>
</g>
<defs>
<clipPath id="clip0_7805_38670">
<rect width="72" height="70.2238" fill="white"/>
</clipPath>
</defs>
</svg>

<svg xmlns="http://www.w3.org/2000/svg" width="72" height="71" fill="none" viewBox="0 0 72 71"><g clip-path="url(#clip0_7805_38670)"><path fill="#fff" d="M36 0c19.89 0 36 16.11 36 36a36.06 36.06 0 0 1-24.525 34.155c-1.8.36-2.475-.765-2.475-1.71 0-1.215.045-5.085.045-9.9 0-3.375-1.125-5.535-2.43-6.66 8.01-.9 16.425-3.96 16.425-17.775 0-3.96-1.395-7.155-3.69-9.675.36-.9 1.62-4.59-.36-9.54 0 0-3.015-.99-9.9 3.69-2.88-.81-5.94-1.215-9-1.215s-6.12.405-9 1.215c-6.885-4.635-9.9-3.69-9.9-3.69-1.98 4.95-.72 8.64-.36 9.54-2.295 2.52-3.69 5.76-3.69 9.675 0 13.77 8.37 16.875 16.38 17.775-1.035.9-1.98 2.475-2.295 4.815-2.07.945-7.245 2.475-10.485-2.97-.675-1.08-2.7-3.735-5.535-3.69-3.015.045-1.215 1.71.045 2.385 1.53.855 3.285 4.05 3.69 5.085.72 2.025 3.06 5.895 12.105 4.23 0 3.015.045 5.85.045 6.705 0 .945-.675 2.025-2.475 1.71A35.98 35.98 0 0 1 0 36C0 16.11 16.11 0 36 0"/></g><defs><clipPath id="clip0_7805_38670"><path fill="#fff" d="M0 0h72v70.224H0z"/></clipPath></defs></svg>
